static/img/kroki/9079c0884a594386a0f8543f4e98c5aa.svg

<?xml version="1.0" encoding="us-ascii" standalone="no"?><svg xmlns="http://www.w3.org/2000/svg" xmlns:xlink="http://www.w3.org/1999/xlink" contentStyleType="text/css" height="252px" preserveAspectRatio="none" style="width:580px;height:252px;" version="1.1" viewBox="0 0 580 252" width="580px" zoomAndPan="magnify"><defs/><g><!--class kubernetes_controller_revision--><g id="elem_kubernetes_controller_revision"><rect codeLine="22" fill="#3D176E" height="39.7891" id="kubernetes_controller_revision" rx="2.5" ry="2.5" style="stroke:#000D19;stroke-width:0.5;" width="300" x="21.83" y="206.58"/><ellipse cx="36.83" cy="226.4745" fill="#ADD1B2" rx="11" ry="11" style="stroke:#181818;stroke-width:1.0;"/><path d="M39.7988,232.1152 Q39.2206,232.412 38.58,232.5527 Q37.9394,232.7089 37.2363,232.7089 Q34.7363,232.7089 33.4081,231.0683 Q32.0956,229.412 32.0956,226.287 Q32.0956,223.162 33.4081,221.5058 Q34.7363,219.8495 37.2363,219.8495 Q37.9394,219.8495 38.58,220.0058 Q39.2363,220.162 39.7988,220.4589 L39.7988,223.1777 Q39.1738,222.5995 38.58,222.3339 Q37.9863,222.0527 37.3613,222.0527 Q36.0175,222.0527 35.33,223.1308 Q34.6425,224.1933 34.6425,226.287 Q34.6425,228.3808 35.33,229.4589 Q36.0175,230.5214 37.3613,230.5214 Q37.9863,230.5214 38.58,230.2558 Q39.1738,229.9745 39.7988,229.3964 L39.7988,232.1152 Z " fill="#000000"/><text fill="#D9B8FF" font-family="Helvetica" font-size="17" lengthAdjust="spacing" textLength="258" x="55.83" y="232.3598">kubernetes_controller_revision</text></g><!--class kubernetes_daemon_set--><g id="elem_kubernetes_daemon_set"><rect codeLine="24" fill="#3D176E" height="39.7891" id="kubernetes_daemon_set" rx="2.5" ry="2.5" style="stroke:#000D19;stroke-width:0.5;" width="247" x="48.33" y="106.79"/><ellipse cx="63.33" cy="126.6845" fill="#ADD1B2" rx="11" ry="11" style="stroke:#181818;stroke-width:1.0;"/><path d="M66.2988,132.3252 Q65.7206,132.622 65.08,132.7627 Q64.4394,132.9189 63.7363,132.9189 Q61.2363,132.9189 59.9081,131.2783 Q58.5956,129.622 58.5956,126.497 Q58.5956,123.372 59.9081,121.7158 Q61.2363,120.0595 63.7363,120.0595 Q64.4394,120.0595 65.08,120.2158 Q65.7363,120.372 66.2988,120.6689 L66.2988,123.3877 Q65.6738,122.8095 65.08,122.5439 Q64.4863,122.2627 63.8613,122.2627 Q62.5175,122.2627 61.83,123.3408 Q61.1425,124.4033 61.1425,126.497 Q61.1425,128.5908 61.83,129.6689 Q62.5175,130.7314 63.8613,130.7314 Q64.4863,130.7314 65.08,130.4658 Q65.6738,130.1845 66.2988,129.6064 L66.2988,132.3252 Z " fill="#000000"/><text fill="#D9B8FF" font-family="Helvetica" font-size="17" lengthAdjust="spacing" textLength="205" x="82.33" y="132.5698">kubernetes_daemon_set</text></g><!--class kubernetes_namespace--><g id="elem_kubernetes_namespace"><rect codeLine="26" fill="#3D176E" height="39.7891" id="kubernetes_namespace" rx="2.5" ry="2.5" style="stroke:#000D19;stroke-width:0.5;" width="239" x="52.33" y="7"/><ellipse cx="67.33" cy="26.8945" fill="#ADD1B2" rx="11" ry="11" style="stroke:#181818;stroke-width:1.0;"/><path d="M70.2988,32.5352 Q69.7206,32.832 69.08,32.9727 Q68.4394,33.1289 67.7363,33.1289 Q65.2363,33.1289 63.9081,31.4883 Q62.5956,29.832 62.5956,26.707 Q62.5956,23.582 63.9081,21.9258 Q65.2363,20.2695 67.7363,20.2695 Q68.4394,20.2695 69.08,20.4258 Q69.7363,20.582 70.2988,20.8789 L70.2988,23.5977 Q69.6738,23.0195 69.08,22.7539 Q68.4863,22.4727 67.8613,22.4727 Q66.5175,22.4727 65.83,23.5508 Q65.1425,24.6133 65.1425,26.707 Q65.1425,28.8008 65.83,29.8789 Q66.5175,30.9414 67.8613,30.9414 Q68.4863,30.9414 69.08,30.6758 Q69.6738,30.3945 70.2988,29.8164 L70.2988,32.5352 Z " fill="#000000"/><text fill="#D9B8FF" font-family="Helvetica" font-size="17" lengthAdjust="spacing" textLength="197" x="86.33" y="32.7798">kubernetes_namespace</text></g><!--class kubernetes_stateful_set--><g id="elem_kubernetes_stateful_set"><rect codeLine="28" fill="#3D176E" height="39.7891" id="kubernetes_stateful_set" rx="2.5" ry="2.5" style="stroke:#000D19;stroke-width:0.5;" width="243" x="330.33" y="106.79"/><ellipse cx="345.33" cy="126.6845" fill="#ADD1B2" rx="11" ry="11" style="stroke:#181818;stroke-width:1.0;"/><path d="M348.2988,132.3252 Q347.7206,132.622 347.08,132.7627 Q346.4394,132.9189 345.7363,132.9189 Q343.2363,132.9189 341.9081,131.2783 Q340.5956,129.622 340.5956,126.497 Q340.5956,123.372 341.9081,121.7158 Q343.2363,120.0595 345.7363,120.0595 Q346.4394,120.0595 347.08,120.2158 Q347.7363,120.372 348.2988,120.6689 L348.2988,123.3877 Q347.6738,122.8095 347.08,122.5439 Q346.4863,122.2627 345.8613,122.2627 Q344.5175,122.2627 343.83,123.3408 Q343.1425,124.4033 343.1425,126.497 Q343.1425,128.5908 343.83,129.6689 Q344.5175,130.7314 345.8613,130.7314 Q346.4863,130.7314 347.08,130.4658 Q347.6738,130.1845 348.2988,129.6064 L348.2988,132.3252 Z " fill="#000000"/><text fill="#D9B8FF" font-family="Helvetica" font-size="17" lengthAdjust="spacing" textLength="201" x="364.33" y="132.5698">kubernetes_stateful_set</text></g><!--link kubernetes_daemon_set to kubernetes_controller_revision--><g id="link_kubernetes_daemon_set_kubernetes_controller_revision"><path codeLine="30" d="M171.83,147.01 C171.83,162.28 171.83,183.71 171.83,200.32 " fill="none" id="kubernetes_daemon_set-to-kubernetes_controller_revision" style="stroke:#1A83AF;stroke-width:2.0;"/><polygon fill="#1A83AF" points="171.83,205.2,175.83,196.2,171.83,200.2,167.83,196.2,171.83,205.2" style="stroke:#1A83AF;stroke-width:2.0;"/></g><!--link kubernetes_namespace to kubernetes_controller_revision--><g id="link_kubernetes_namespace_kubernetes_controller_revision"><path codeLine="31" d="M107.31,47.22 C78.57,59.41 47.5,78.36 30.83,106.79 C6,149.14 61.56,183.35 110.09,203.97 " fill="none" id="kubernetes_namespace-to-kubernetes_controller_revision" style="stroke:#1A83AF;stroke-width:2.0;"/><polygon fill="#1A83AF" points="114.36,206.17,107.5986,199.0087,109.7467,204.2419,104.5136,206.39,114.36,206.17" style="stroke:#1A83AF;stroke-width:2.0;"/></g><!--link kubernetes_namespace to kubernetes_daemon_set--><g id="link_kubernetes_namespace_kubernetes_daemon_set"><path codeLine="32" d="M171.83,47.22 C171.83,62.49 171.83,83.92 171.83,100.53 " fill="none" id="kubernetes_namespace-to-kubernetes_daemon_set" style="stroke:#1A83AF;stroke-width:2.0;"/><polygon fill="#1A83AF" points="171.83,105.41,175.83,96.41,171.83,100.41,167.83,96.41,171.83,105.41" style="stroke:#1A83AF;stroke-width:2.0;"/></g><!--link kubernetes_namespace to kubernetes_stateful_set--><g id="link_kubernetes_namespace_kubernetes_stateful_set"><path codeLine="33" d="M227.15,47.22 C274.42,63.72 342.31,87.44 391.08,104.47 " fill="none" id="kubernetes_namespace-to-kubernetes_stateful_set" style="stroke:#1A83AF;stroke-width:2.0;"/><polygon fill="#1A83AF" points="395.63,106.41,388.4476,99.6711,390.9085,104.7646,385.815,107.2255,395.63,106.41" style="stroke:#1A83AF;stroke-width:2.0;"/></g><!--link kubernetes_stateful_set to kubernetes_controller_revision--><g id="link_kubernetes_stateful_set_kubernetes_controller_revision"><path codeLine="34" d="M396.51,147.01 C349.24,163.51 281.35,187.23 232.58,204.26 " fill="none" id="kubernetes_stateful_set-to-kubernetes_controller_revision" style="stroke:#1A83AF;stroke-width:2.0;"/><polygon fill="#1A83AF" points="228.03,206.2,237.8443,207.0248,232.7531,204.5591,235.2188,199.4679,228.03,206.2" style="stroke:#1A83AF;stroke-width:2.0;"/></g><!--SRC=[jP91Jy9048Nl_HMRS2QXDWfSJ2e9qGinuiqOCdHdOTFjBfcTGj3utosYkBO5mi7hlc_Vl3UPfPOei5ZnLXHOp95yv7DjLq1GY9J8RKREE18TfK0b_ReuTfRF0XCeKDoZMIFh3Eh4yr9dkKNlnLKWtK6MByYLLkxjcS3wIaBB0JKou7tAJ7fUCWPXv70-KAfEraqxYOpxDzZ074caRwJNwybuM4VEZZhP-q1CzHkAE5pQn34sOZP6V54dK-w886IZw8z-DECZIAdjGbm7Rq_xJ6IH_hnFbo3TPaShC3uSuna97MzNE6gqmk50gduh_70CpdQR4tbP7Qf5HZ_BgWxaZ46Q4QwrrywAz-YZ2Kh0mjcPHsxNRRM8wi0oR9Sz0wCgpS6WtRhxqedJGPAENxktPs96hSF_pU0tv6N_mkBHiOLSaFeJ]--></g></svg>

<svg xmlns="http://www.w3.org/2000/svg" width="580" height="252" preserveAspectRatio="none" style="width:580px;height:252px"><rect width="300" height="39.789" x="21.83" y="206.58" fill="#3D176E" rx="2.5" ry="2.5" style="stroke:#000d19;stroke-width:.5"/><circle cx="36.83" cy="226.475" r="11" fill="#ADD1B2" style="stroke:#181818;stroke-width:1"/><path d="M39.799 232.115q-.578.297-1.219.438-.64.156-1.344.156-2.5 0-3.828-1.64-1.312-1.657-1.312-4.782t1.312-4.781q1.328-1.656 3.828-1.656.703 0 1.344.156.656.156 1.219.453v2.719q-.625-.578-1.219-.844-.594-.281-1.219-.281-1.343 0-2.031 1.078-.688 1.062-.688 3.156 0 2.094.688 3.172.688 1.062 2.031 1.062.625 0 1.219-.265.594-.281 1.219-.86v2.72Z"/><text x="55.83" y="232.36" fill="#D9B8FF" font-family="Helvetica" font-size="17" textLength="258">kubernetes_controller_revision</text><rect width="247" height="39.789" x="48.33" y="106.79" fill="#3D176E" rx="2.5" ry="2.5" style="stroke:#000d19;stroke-width:.5"/><circle cx="63.33" cy="126.684" r="11" fill="#ADD1B2" style="stroke:#181818;stroke-width:1"/><path d="M66.299 132.325q-.578.297-1.219.438-.64.156-1.344.156-2.5 0-3.828-1.64-1.312-1.657-1.312-4.782t1.312-4.781q1.328-1.656 3.828-1.656.703 0 1.344.156.656.156 1.219.453v2.719q-.625-.579-1.219-.844-.594-.281-1.219-.281-1.343 0-2.031 1.078-.688 1.062-.688 3.156 0 2.094.688 3.172.688 1.062 2.031 1.062.625 0 1.219-.265.594-.281 1.219-.86v2.72Z"/><text x="82.33" y="132.57" fill="#D9B8FF" font-family="Helvetica" font-size="17" textLength="205">kubernetes_daemon_set</text><rect width="239" height="39.789" x="52.33" y="7" fill="#3D176E" rx="2.5" ry="2.5" style="stroke:#000d19;stroke-width:.5"/><circle cx="67.33" cy="26.895" r="11" fill="#ADD1B2" style="stroke:#181818;stroke-width:1"/><path d="M70.299 32.535q-.578.297-1.219.438-.64.156-1.344.156-2.5 0-3.828-1.64-1.312-1.657-1.312-4.782t1.312-4.781q1.328-1.656 3.828-1.656.703 0 1.344.156.656.156 1.219.453v2.719q-.625-.578-1.219-.844-.594-.281-1.219-.281-1.344 0-2.031 1.078-.688 1.062-.688 3.156 0 2.094.688 3.172.688 1.062 2.031 1.062.625 0 1.219-.265.594-.281 1.219-.86v2.72Z"/><text x="86.33" y="32.78" fill="#D9B8FF" font-family="Helvetica" font-size="17" textLength="197">kubernetes_namespace</text><rect width="243" height="39.789" x="330.33" y="106.79" fill="#3D176E" rx="2.5" ry="2.5" style="stroke:#000d19;stroke-width:.5"/><circle cx="345.33" cy="126.684" r="11" fill="#ADD1B2" style="stroke:#181818;stroke-width:1"/><path d="M348.299 132.325q-.578.297-1.219.438-.64.156-1.344.156-2.5 0-3.828-1.64-1.312-1.657-1.312-4.782t1.312-4.781q1.328-1.656 3.828-1.656.703 0 1.344.156.656.156 1.219.453v2.719q-.625-.579-1.219-.844-.594-.281-1.219-.281-1.344 0-2.031 1.078-.688 1.062-.688 3.156 0 2.094.688 3.172.688 1.062 2.031 1.062.625 0 1.219-.265.594-.281 1.219-.86v2.72Z"/><text x="364.33" y="132.57" fill="#D9B8FF" font-family="Helvetica" font-size="17" textLength="201">kubernetes_stateful_set</text><path fill="none" d="M171.83 147.01v53.31" style="stroke:#1a83af;stroke-width:2"/><path fill="#1A83AF" d="m171.83 205.2 4-9-4 4-4-4 4 9z" style="stroke:#1a83af;stroke-width:2"/><path fill="none" d="M107.31 47.22C78.57 59.41 47.5 78.36 30.83 106.79 6 149.14 61.56 183.35 110.09 203.97" style="stroke:#1a83af;stroke-width:2"/><path fill="#1A83AF" d="m114.36 206.17-6.761-7.161 2.148 5.233-5.233 2.148 9.846-.22z" style="stroke:#1a83af;stroke-width:2"/><path fill="none" d="M171.83 47.22v53.31" style="stroke:#1a83af;stroke-width:2"/><path fill="#1A83AF" d="m171.83 105.41 4-9-4 4-4-4 4 9z" style="stroke:#1a83af;stroke-width:2"/><path fill="none" d="M227.15 47.22c47.27 16.5 115.16 40.22 163.93 57.25" style="stroke:#1a83af;stroke-width:2"/><path fill="#1A83AF" d="m395.63 106.41-7.182-6.739 2.46 5.094-5.093 2.46 9.815-.815z" style="stroke:#1a83af;stroke-width:2"/><path fill="none" d="M396.51 147.01c-47.27 16.5-115.16 40.22-163.93 57.25" style="stroke:#1a83af;stroke-width:2"/><path fill="#1A83AF" d="m228.03 206.2 9.814.825-5.09-2.466 2.465-5.091-7.189 6.732z" style="stroke:#1a83af;stroke-width:2"/></svg>
